X:1
T:Unto Him Be Glory
T:Unto Him Be Glory
T:Irvin Justice Heffley
T:Emma Pitt, 1881
T:Public Domain Courtesy of the Cyber Hymnal™
T:Public Domain Courtesy of the Cyber Hymnal™
C:Irvin Justice Heffley
Z:Public Domain
Z:Courtesy of the Cyber Hymnal™
%%score ( 1 2 ) ( 3 4 )
L:1/8
Q:1/4=100
M:6/8
K:E
V:1 treble 
V:2 treble 
V:3 bass 
V:4 bass 
V:1
 ([EG]/[FA]/) | [GB]2 [Ge] [Ad]2 [Ac] | [GB]2 [EG] E2 [EF] | [EG]2 [EG] (GF)E | %4
w: 1.~O’er *|Beth- lehem’s bright and|sun- ny plain, There|comes a ho- * ly|
w: 2.~Be *|glo- ry, hon- or|un- to Him, Who|on this day * was|
w: 3.~All *|na- tions catch the|glo- ry theme, And|our Mes- si- * ah|
w: 4.~Far *|on the list- ening|ear of night, Comes|sweet and sac- * red|
 [DF]3- [DF]2 ([EG]/[FA]/) | [GB]2 [Ge] [Ad]2 [Ac] | [GB]2 [EG] E2 [EF] | [EG]2 [EG] (BA)[DF] | %8
w: calm, * In *|sol- emn tones there|Sha- ron waves Her|beau- teous trees * of|
w: born, * With *|heart and voice join|in the strain, This|ho- ly, sac- * red|
w: praise, * Let *|ev- ery tongue His|hon- or speak, And|sing in joy- * ful|
w: song, * The *|an- gels from their|loft- y height, The|might- y strain * pro-|
 E3- E2 ||"^Refrain" [DF] | [DF]3- [DF]2 [DB] | [Fd]3- [Fd]2 [FB] | [F^A]2 [FA] (Ad)[Ec] | %13
w: palm. *|||||
w: morn. *|Let|hills, * let|hills * and|vales their voice * u-|
w: lays. *|||||
w: long. *|||||
 ([D-B]3 [DF]2) [DF] | [DF]3- [DF]2 [DB] | [Fd]3- [Fd]2 [FB] | [F^A]2 [FA] (Ad)[Ec] | %17
w: ||||
w: nite, * And|greet, * and|greet * with|us in loft- * y|
w: ||||
w: ||||
 [DB]3- [DB]2 ([EG]/[FA]/) | [GB]2 [Ge] [Ad]2 [Ac] | [GB]2 [EG] E2 [EF] | [EG]2 [EG] (GF)E | %21
w: ||||
w: praise, * And *|greet with us in|loft- y praise, The|Day- Spring from * on|
w: ||||
w: ||||
 [DF]3- [DF]2 ([EG]/[FA]/) | [GB]2 [Ge] [Ad]2 [Ac] | [GB]2 [EG] E2 [Ec] | [GB]2 [GB] (dc)[Ad] | %25
w: ||||
w: high; * Be *|glo- ry, hon- or|un- to Him Who|on this day * was|
w: ||||
w: ||||
 [Ge]3- [Ge]2 |] %26
w: |
w: born. *|
w: |
w: |
V:2
 x | x6 | x3 E2 x | x3 E2 E | x6 | x6 | x3 E2 x | x3 D2 x | E3- E2 || x | x6 | x6 | x3 F2 x | x6 | %14
 x6 | x6 | x3 F2 x | x6 | x6 | x3 E2 x | x3 E2 E | x6 | x6 | x3 E2 x | x3 A2 x | x5 |] %26
V:3
 [E,B,] | [E,B,]2 [E,B,] [E,C]2 [E,D] | [E,E]2 [E,B,] [E,G,]2 [E,A,] | %3
w: ~|~ ~ ~ ~|~ ~ ~ ~|
 [E,B,]2 [E,B,] [C,^A,]2 [C,A,] | [B,,B,]3- [B,,B,]2 [E,B,] | [E,B,]2 [E,B,] [E,C]2 [E,D] | %6
w: ~ ~ ~ ~|~ * ~|~ ~ ~ ~|
 [E,E]2 [E,B,] [E,G,]2 [E,A,] | [B,,B,]2 [B,,B,] [B,,F,]2 [B,,A,] | [E,G,]3- [E,G,]2 || z | %10
w: ~ ~ ~ ~|~ ~ ~ ~|~ *||
 z2 [B,,B,] [B,,B,]2 z | z2 [B,,B,] [B,,B,]2 [B,,D] | [F,C]2 [F,C] (CB,)[F,^A,] | %13
w: Let hills,|let hills and|vales ~ ~ * ~|
 [B,,B,]3- [B,,B,]2 z | z2 [B,,B,] [B,,B,]2 z | z2 [B,,B,] [B,,B,]2 [D,B,] | %16
w: ~ *|And greet,|and greet *|
 [F,C]2 [F,C] (CB,)[F,^A,] | [B,,B,]3- [B,,B,]2 [E,B,] | [E,E]2 [E,E] [E,E]2 [E,E] | %19
w: |||
 [E,E]2 [E,B,] [E,G,]2 [E,A,] | [E,B,]2 [E,B,] [C,^A,]2 [C,A,] | [B,,B,]3- [B,,B,]2 [E,B,] | %22
w: |||
 [E,E]2 [E,E] [E,E]2 [E,E] | [E,E]2 [E,B,] [G,B,]2 [A,E] | [B,E]2 [B,E] [B,,B,]2 [B,,B,] | %25
w: |||
 [E,B,]3- [E,B,]2 |] %26
w: |
V:4
 x | x6 | x6 | x6 | x6 | x6 | x6 | x6 | x5 || x | x6 | x6 | x3 F,2 x | x6 | x6 | x6 | x3 F,2 x | %17
 x6 | x6 | x6 | x6 | x6 | x6 | x6 | x6 | x5 |] %26

